public/logo.svg

<svg xmlns="http://www.w3.org/2000/svg" xmlns:xlink="http://www.w3.org/1999/xlink" width="750" zoomAndPan="magnify" viewBox="0 0 562.5 562.499982" height="750" preserveAspectRatio="xMidYMid meet" version="1.0"><defs><clipPath id="cf79b5e2ef"><path d="M 11 12 L 551 12 L 551 562 L 11 562 Z M 11 12 " clip-rule="nonzero"/></clipPath></defs><g clip-path="url(#cf79b5e2ef)"><path fill="#ffffff" d="M 45.578125 61.066406 C 57.933594 43.457031 76.058594 33.597656 93.609375 23.71875 C 106.253906 16.601562 120.535156 13.058594 135.753906 12.34375 C 159.679688 11.222656 180.792969 18.117188 199.347656 31.949219 C 210.632812 40.363281 220.605469 50.945312 229.667969 61.804688 C 237.730469 71.46875 244.1875 82.585938 250.519531 93.542969 C 260.132812 110.1875 267.070312 128.015625 271.65625 146.726562 C 276.15625 165.070312 279.953125 183.515625 280.542969 202.484375 C 280.566406 203.308594 281.226562 204.113281 281.589844 204.925781 C 282.492188 203.984375 284.039062 203.136719 284.195312 202.082031 C 286.390625 187.367188 292.316406 173.921875 297.847656 160.296875 C 303.613281 146.101562 310.941406 132.824219 320.796875 121.164062 C 329.753906 110.570312 339.105469 100.25 348.957031 90.488281 C 362.703125 76.863281 376.417969 63.066406 391.363281 50.835938 C 406.648438 38.332031 424.261719 29.453125 443.925781 25.320312 C 474.171875 18.964844 502.492188 21.714844 525.378906 44.746094 C 538.675781 58.125 546.136719 75.050781 548.527344 93.839844 C 549.871094 104.386719 551.328125 115.085938 550.917969 125.644531 C 550.222656 143.621094 546.546875 161.195312 541.621094 178.585938 C 534.292969 204.457031 522.902344 228.550781 511.664062 252.8125 C 502.34375 272.941406 494.441406 293.730469 485.257812 313.929688 C 479.605469 326.367188 472.835938 338.304688 466.382812 350.367188 C 460.191406 361.9375 454.089844 373.570312 447.375 384.839844 C 433.054688 408.871094 418.417969 432.710938 403.820312 456.574219 C 385.097656 487.183594 366.507812 517.875 347.351562 548.207031 C 342.816406 555.386719 336.769531 561.851562 330.445312 567.574219 C 325.023438 572.480469 318.804688 570.238281 314.042969 564.335938 C 309.988281 559.308594 305.007812 555.019531 300.367188 550.472656 C 282.230469 532.722656 263.445312 515.589844 246.125 497.074219 C 233.71875 483.8125 222.980469 468.9375 212.03125 454.382812 C 202.730469 442.019531 190.878906 432.507812 179.074219 422.890625 C 168.871094 414.574219 158.550781 406.398438 148.175781 398.296875 C 125.484375 380.578125 104 361.515625 84.234375 340.582031 C 69.136719 324.589844 56.511719 306.757812 45.160156 287.898438 C 31.808594 265.722656 23.042969 241.753906 16.480469 216.976562 C 13.867188 207.113281 13.472656 196.632812 12.445312 186.394531 C 11.6875 178.804688 10.726562 171.097656 11.265625 163.546875 C 12.933594 140.09375 16.792969 117.035156 27.4375 95.703125 C 33.191406 84.167969 39.308594 72.816406 45.578125 61.066406 M 401.277344 80.984375 C 389.90625 85.667969 378.902344 90.917969 371.132812 101.015625 C 359.949219 115.558594 347.660156 129.398438 337.898438 144.839844 C 326.101562 163.5 316.074219 183.320312 305.988281 203.003906 C 296.816406 220.902344 295.070312 240.890625 292.003906 260.386719 C 290.453125 270.25 290.378906 280.339844 289.300781 290.289062 C 288.285156 299.632812 280.058594 304.496094 274.398438 298.90625 C 272.148438 296.679688 272.519531 291.824219 271.628906 288.179688 C 271.332031 286.960938 270.828125 285.792969 270.421875 284.605469 C 269.566406 285.59375 268.414062 286.449219 267.902344 287.59375 C 265.675781 292.570312 263.859375 297.734375 261.457031 302.617188 C 259.539062 306.519531 252.195312 309.269531 249.328125 306.960938 C 245.835938 304.152344 242.074219 301.277344 244.953125 295.246094 C 249.636719 285.417969 253.5625 275.21875 257.582031 265.085938 C 259.4375 260.410156 261.300781 256.058594 258.613281 250.429688 C 251.65625 235.855469 245.480469 220.902344 239.242188 205.996094 C 229.046875 181.640625 215.460938 159.28125 199.363281 138.464844 C 191.132812 127.816406 182.199219 117.707031 173.5 107.433594 C 156.71875 87.617188 138.050781 70.109375 113.53125 60.1875 C 103.988281 56.324219 94.105469 53.550781 83.679688 56.960938 C 74.125 60.085938 68.910156 68.300781 63.160156 75.480469 C 59.210938 80.414062 56.234375 86.527344 54.304688 92.582031 C 51.21875 102.277344 49.324219 112.242188 51.449219 122.695312 C 53.019531 130.40625 52.503906 138.582031 54.386719 146.1875 C 59.699219 167.660156 67.652344 188.265625 77.996094 207.804688 C 88.632812 227.890625 99.589844 247.828125 111.132812 267.402344 C 123.757812 288.804688 136.875 309.941406 150.402344 330.785156 C 165.652344 354.277344 181.464844 377.402344 197.3125 400.496094 C 203.453125 409.441406 209.511719 418.714844 217.140625 426.300781 C 225.222656 434.335938 234.925781 440.828125 244.289062 447.476562 C 260.355469 458.882812 276.464844 470.265625 293.019531 480.9375 C 305.546875 489.011719 318.804688 495.949219 331.722656 503.417969 C 335.433594 505.5625 338.230469 505.859375 340.46875 501.132812 C 342.652344 496.527344 345.792969 492.386719 348.394531 487.972656 C 358.671875 470.527344 368.894531 453.054688 379.148438 435.597656 C 388.109375 420.34375 396.925781 405 406.105469 389.878906 C 416.34375 373.011719 427.105469 356.460938 437.300781 339.566406 C 450.308594 318.019531 462.292969 295.824219 475.949219 274.703125 C 495.402344 244.613281 502.507812 211.074219 505.398438 176.308594 C 506.371094 164.589844 505.214844 152.617188 504.234375 140.828125 C 503.183594 128.164062 500.007812 116.054688 493.039062 105.03125 C 479.679688 83.90625 460.585938 72.179688 435.8125 72.566406 C 424.472656 72.746094 413.210938 77.613281 401.277344 80.984375 M 260.894531 192.28125 C 258.074219 178.074219 256.476562 163.480469 252.105469 149.769531 C 247.105469 134.074219 240.582031 118.679688 233.027344 104.027344 C 220.308594 79.367188 203.460938 57.90625 179.058594 43.398438 C 160.394531 32.304688 140.621094 29.304688 119.640625 35.125 C 117.519531 35.710938 115.582031 36.972656 113.554688 37.917969 C 115.589844 38.785156 117.621094 39.644531 119.652344 40.515625 C 120.1875 40.746094 120.699219 41.050781 121.246094 41.242188 C 139.328125 47.542969 154.375 58.855469 167.863281 71.808594 C 180.945312 84.375 192.640625 98.410156 204.640625 112.070312 C 222.570312 132.480469 236.214844 155.777344 248.785156 179.695312 C 253.117188 187.941406 256.277344 196.800781 260.117188 205.3125 C 260.539062 206.25 261.917969 206.753906 262.855469 207.457031 C 263.152344 206.300781 263.847656 205.089844 263.683594 204.003906 C 263.128906 200.28125 262.269531 196.605469 260.894531 192.28125 M 34.511719 149.28125 C 33.457031 151.964844 31.519531 154.652344 31.511719 157.339844 C 31.496094 166.007812 32.132812 174.679688 32.636719 183.34375 C 32.933594 188.441406 32.828125 193.675781 33.996094 198.585938 C 37.757812 214.382812 41.453125 230.101562 47.503906 245.394531 C 59.390625 275.441406 76.722656 301.761719 98.289062 325.371094 C 108.980469 337.070312 120.941406 347.628906 132.515625 358.5 C 138.949219 364.539062 145.742188 370.195312 152.460938 375.917969 C 153.519531 376.816406 155.054688 377.152344 156.371094 377.75 C 155.898438 376.308594 155.75 374.644531 154.90625 373.472656 C 149.640625 366.144531 143.78125 359.210938 138.941406 351.625 C 128.246094 334.851562 117.871094 317.867188 107.671875 300.789062 C 93.671875 277.347656 79.152344 254.164062 66.332031 230.089844 C 52.742188 204.570312 39.234375 178.75 34.511719 149.28125 M 439.21875 53.160156 C 447.828125 51.527344 455.960938 53.742188 463.964844 56.441406 C 486.910156 64.1875 503.21875 79.847656 514.320312 100.777344 C 522.203125 115.648438 525.738281 131.878906 524.65625 148.914062 C 524.570312 150.269531 525.425781 151.6875 525.84375 153.074219 C 526.691406 151.65625 528.207031 150.269531 528.277344 148.8125 C 528.882812 136.160156 529.777344 123.476562 529.449219 110.835938 C 529.238281 102.703125 527.789062 94.445312 525.734375 86.546875 C 518.3125 58.054688 495.78125 41.941406 466.578125 43.242188 C 456.910156 43.671875 447.316406 46.285156 437.746094 48.1875 C 435.011719 48.730469 432.480469 50.289062 429.855469 51.382812 C 432.554688 51.976562 435.253906 52.570312 439.21875 53.160156 M 277.335938 494.546875 C 276.171875 493.800781 275.078125 492.886719 273.820312 492.355469 C 272.128906 491.640625 270.3125 491.230469 268.550781 490.6875 C 269.425781 492.027344 270.078125 493.605469 271.210938 494.671875 C 284.367188 507.097656 297.539062 519.503906 310.902344 531.703125 C 312.039062 532.738281 315.039062 533.078125 316.324219 532.3125 C 318.78125 530.855469 321.011719 528.617188 322.542969 526.199219 C 323.21875 525.132812 322.554688 521.890625 321.507812 521.25 C 307.09375 512.394531 292.511719 503.820312 277.335938 494.546875 Z M 277.335938 494.546875 " fill-opacity="1" fill-rule="nonzero"/></g></svg>

<svg xmlns="http://www.w3.org/2000/svg" width="750" height="750" version="1.0" viewBox="0 0 562.5 562.5"><defs><clipPath id="a"><path d="M11 12h540v550H11Zm0 0"/></clipPath></defs><g clip-path="url(#a)"><path fill="#fff" d="M45.578 61.066C57.934 43.457 76.058 33.598 93.61 23.72c12.645-7.117 26.926-10.66 42.145-11.375 23.926-1.121 45.039 5.773 63.594 19.605 11.285 8.414 21.257 18.996 30.32 29.856 8.062 9.664 14.52 20.78 20.852 31.738 9.613 16.644 16.55 34.473 21.136 53.184 4.5 18.343 8.297 36.789 8.887 55.757.023.825.684 1.63 1.047 2.442.902-.942 2.45-1.79 2.605-2.844 2.196-14.715 8.121-28.16 13.653-41.785 5.765-14.195 13.093-27.473 22.949-39.133 8.957-10.594 18.308-20.914 28.16-30.676 13.746-13.625 27.461-27.422 42.406-39.652 15.285-12.504 32.899-21.383 52.563-25.516 30.246-6.355 58.566-3.605 81.453 19.426 13.297 13.379 20.758 30.305 23.148 49.094 1.344 10.547 2.801 21.246 2.391 31.805-.695 17.976-4.371 35.55-9.297 52.94-7.328 25.872-18.719 49.966-29.957 74.227-9.32 20.13-17.223 40.918-26.406 61.118-5.653 12.437-12.422 24.375-18.875 36.437-6.192 11.57-12.293 23.203-19.008 34.473-14.32 24.031-28.957 47.87-43.555 71.734-18.722 30.61-37.312 61.301-56.468 91.633-4.536 7.18-10.582 13.645-16.907 19.367-5.422 4.906-11.64 2.664-16.402-3.238-4.055-5.027-9.035-9.316-13.676-13.863-18.137-17.75-36.922-34.883-54.242-53.399-12.406-13.262-23.145-28.137-34.094-42.691-9.3-12.363-21.152-21.875-32.957-31.492-10.203-8.317-20.523-16.493-30.898-24.594-22.692-17.719-44.176-36.781-63.942-57.715-15.097-15.992-27.722-33.824-39.074-52.684-13.351-22.175-22.117-46.144-28.68-70.921-2.613-9.864-3.007-20.344-4.035-30.582-.758-7.59-1.718-15.297-1.18-22.848 1.669-23.453 5.528-46.512 16.173-67.844 5.753-11.535 11.87-22.887 18.14-34.637m355.7 19.918c-11.372 4.684-22.376 9.934-30.145 20.032-11.184 14.543-23.473 28.382-33.235 43.824-11.796 18.66-21.824 38.48-31.91 58.164-9.172 17.898-10.918 37.887-13.984 57.383-1.55 9.863-1.625 19.953-2.703 29.902-1.016 9.344-9.242 14.207-14.903 8.617-2.25-2.226-1.878-7.082-2.77-10.726-.296-1.22-.8-2.387-1.206-3.575-.856.989-2.008 1.844-2.52 2.989-2.226 4.976-4.043 10.14-6.445 15.023-1.918 3.903-9.262 6.653-12.129 4.344-3.492-2.809-7.254-5.684-4.375-11.715 4.684-9.828 8.61-20.027 12.629-30.16 1.856-4.676 3.719-9.027 1.031-14.656-6.957-14.575-13.133-29.528-19.37-44.434-10.196-24.355-23.782-46.715-39.88-67.531-8.23-10.649-17.164-20.758-25.863-31.031-16.781-19.817-35.45-37.325-59.969-47.246-9.543-3.864-19.426-6.637-29.851-3.227-9.555 3.125-14.77 11.34-20.52 18.52-3.95 4.933-6.926 11.046-8.855 17.101-3.086 9.695-4.98 19.66-2.856 30.113 1.57 7.711 1.055 15.887 2.938 23.493 5.312 21.472 13.265 42.078 23.61 61.617 10.636 20.086 21.593 40.023 33.136 59.597 12.625 21.403 25.742 42.54 39.27 63.383 15.25 23.492 31.062 46.617 46.91 69.711 6.14 8.945 12.199 18.219 19.828 25.805 8.082 8.035 17.785 14.527 27.148 21.176 16.066 11.406 32.176 22.789 48.73 33.46 12.528 8.075 25.786 15.012 38.704 22.481 3.71 2.144 6.507 2.441 8.746-2.285 2.183-4.606 5.324-8.746 7.926-13.16 10.277-17.446 20.5-34.918 30.753-52.375 8.961-15.254 17.778-30.598 26.957-45.72 10.239-16.866 21-33.417 31.196-50.312 13.008-21.546 24.992-43.742 38.648-64.863 19.453-30.09 26.559-63.629 29.45-98.394.972-11.72-.184-23.692-1.165-35.48-1.05-12.665-4.226-24.774-11.195-35.798-13.36-21.125-32.453-32.851-57.226-32.465-11.34.18-22.602 5.047-34.536 8.418M260.895 192.281c-2.82-14.207-4.418-28.8-8.79-42.511-5-15.696-11.523-31.09-19.078-45.743-12.718-24.66-29.566-46.12-53.968-60.629-18.664-11.093-38.438-14.093-59.418-8.273-2.121.586-4.059 1.848-6.086 2.793 2.035.867 4.066 1.727 6.097 2.598.535.23 1.047.535 1.594.726 18.082 6.301 33.129 17.613 46.617 30.567 13.082 12.566 24.778 26.601 36.778 40.261 17.93 20.41 31.574 43.707 44.144 67.625 4.332 8.246 7.492 17.106 11.332 25.618.422.937 1.801 1.44 2.738 2.144.297-1.156.993-2.367.829-3.453-.555-3.723-1.414-7.399-2.79-11.723m-226.382-43c-1.055 2.684-2.992 5.371-3 8.059-.016 8.668.62 17.34 1.125 26.004.297 5.097.191 10.332 1.36 15.242 3.76 15.797 7.456 31.516 13.507 46.809 11.887 30.046 29.219 56.367 50.785 79.976 10.691 11.7 22.652 22.258 34.227 33.129 6.433 6.04 13.226 11.695 19.945 17.418 1.059.898 2.594 1.234 3.91 1.832-.473-1.441-.621-3.105-1.465-4.277-5.265-7.328-11.125-14.262-15.965-21.848-10.695-16.773-21.07-33.758-31.27-50.836-14-23.441-28.519-46.625-41.339-70.7-13.59-25.519-27.098-51.339-31.82-80.808m404.707-96.12c8.61-1.634 16.742.581 24.746 3.28 22.945 7.746 39.254 23.407 50.355 44.336 7.883 14.871 11.418 31.102 10.336 48.137-.086 1.356.77 2.774 1.188 4.16.847-1.418 2.363-2.804 2.433-4.262.606-12.652 1.5-25.335 1.172-37.976-.21-8.133-1.66-16.39-3.715-24.29-7.422-28.491-29.953-44.605-59.156-43.304-9.668.43-19.262 3.043-28.832 4.946-2.734.542-5.266 2.101-7.89 3.195 2.699.594 5.398 1.187 9.363 1.777M277.336 494.547c-1.164-.746-2.258-1.66-3.516-2.192-1.691-.714-3.507-1.125-5.27-1.668.876 1.34 1.528 2.918 2.66 3.985 13.157 12.426 26.33 24.832 39.692 37.031 1.137 1.035 4.137 1.375 5.422.61 2.457-1.458 4.688-3.696 6.219-6.114.676-1.066.012-4.308-1.035-4.949-14.414-8.855-28.996-17.43-44.172-26.703m0 0"/></g></svg>
